X: 186
T: Polska efter Pål Nilsson
O:Tornäs, Jämtland
Z:Transcribed to abcby Jon Magnusson 080501
R: Polska
M: 3/4
L: 1/8
K: A
e>c (3AcA E2|(3ABc d>f f>e|c>d (3BdB (3AcA|G>B B>A Ac|
e>c (3AcA E2|(3ABc d>f f>e|c>d (3BdB (3AcA|GB A4:|
|:A>c c>d d>e|(3=gag (3fed d>e|c>e d>f f>e|c>A G>B B>A|
A>c c>d d>e|(3=gag (3fed d>e|c>e d>f f>e|(3f=gf e4:|
(:musicend:)

(:music:)
